!!! OTL: Berkowitz226
!!! Chapter: 1
!!! Section: II
!!! Page: 52
!!! Mode: 
!!! Encoder: DJB
**kern
*staff1
*I"Piano
=1-
*clefF4
*k[f#c#g#]
*A:
*M9/8
4c#\
8E\
4D\
8c#\
4.B\
=2
4B\
8D\
4C#/
8B\
4.A\
=3
4A\
8C#/
4BB/
8A\
8G#\L
8F#\
8G#\J
=4
4B\
8A\
4G#\
8F#\
4.E\
=5
4e\
8E\
4F#\
8e\
4.d\
=6
4d\
8E\
4F#\
8d\
4.c#\
=7
!!linebreak:original
4c#\
8E\
4D\
8c#\
8B\L
8A\
8G#\J
=8
4A\
8E\
8d\L
8c#\
8B\J
4.A\
==
*-
